;FLAVOR:Marlin
;TIME:3867.88
;Filament used:4.06312m
;Layer Height:0.2
;MINX:15.051
;MINY:15.051
;MINZ:0.2
;MAXX:204.949
;MAXY:204.949
;MAXZ:48
;OuterWall Time:1115.81
;InnerWall Time:760.242
;Skin Time:1068.63
;Support Time:0
;SkirtBrim Time:0
;Infill Time:132.053
;Support Infills Time:0
;Combing Time:333.255
;Retraction Time:457.892
;PrimeTower Time:0


;;;;;;;;;;;;;;;;;;;;;;;;;;;;;;;;;;;;;;;;;;;;;;;;;;;;;;;;;;;;;;;;;;;;;;;;;;;;
;Creality Print GCode Generated by CXEngine
;CRSLICE_GIT_HASH:6b8d75d
;Creality Print Version : V4.3.7.6619
;CXEngine Release Time:2023-09-20 15:19:09
;Gcode Generated Time:2023-10-21 16:25:25
;----------Machine Config--------------
;Machine Name:Ender-3 V3 SE
;Machine Height:250
;Machine Width:220
;Machine Depth:220
;Material Type:PLA
;Material Name:CR-PLA_1.75
;Number of Extruders:1
;ExtruderParams[0] Nozzle Diameter:1000
;----------Profile Config---------------
;Wall Thickness:0.8
;Top/Bottom Thickness:0.8
;Out Wall Line Width:0.42
;Inner Wall Line Width:0.45
;Inital Height:200
;Wall Line Count:2
;Infill Line Distance:8
;Infill Pattern:grid
;Infill Sparse Density:10
;Infill Wipe Distance:0
;Print Temperature:205
;Bed Temperature:60
;Support Enable:false
;Support Density:15
;Support Angle:60
;Adhesion Type:autobrim
;machine is belt:false
;machine belt offset:10
;machine belt offset Y:0
;Raft Base Line Spacing:1.6
;Wait Heatup Sync:true
;Enable Ironing:false
;Material Type:PLA
;Max volumetric speed:20
;Material Diameter:1.75
;Material Density:1.24
;Filament Cost:0.3
;Filament Weight:0
;Preview Img Type:png
;Screen Size:Sermoon D3
;----------Shell Config----------------
;Outer Wall Wipe Distance:200
;Outer Inset First:false
;Infill Before Walls:false
;Infill Overlap:0.04
;Fill Gaps Between Walls:everywhere
;Minimum Infill Area:15
;Top Surface Skin Layer:0
;Top Layers:4
;Z Seam Alignment:sharpest_corner
;Seam Corner Preference:z_seam_corner_inner
;Z Seam X:110
;Z Seam Y:220
;Horizontal Expansion:0
;Top/Bottom Pattern:zigzag
;Ironing Pattern:zigzag
;Vase Model:false
;----------Support Config----------------
;Support Type:everywhere
;Support Pattern:zigzag
;Support Infill Layer Thickness:0.15
;Minimum Support Area:1
;Enable Support Roof:true
;Support Roof Thickness:0.8
;Support Roof Pattern:lines
;Connect Support Lines:0
;Connect Support ZigZags:1
;Minimum Support X/Y Distance:0.2
;Support Line Distance:2.67
; ---------PrintSpeed & Travel----------
;Enable Print Cool:true
;Avoid Printed Parts Traveling:true
;Enable Retraction:true
;Retraction Distance:0.8
;Retraction Speed:40
;Retraction Prime Speed:40
;Maximum Retraction Count:100
;Minimum Extrusion Distance Window:0.8
;Z Hop When Retracted:false
;Z Hop Height:0.2
;Retract Before Outer Wall:true

;Outer Wall Speed:60
;Inner Wall Speed:90
;Infill Speed:180
;Top/Bottom Speed:50
;Travel Speed:150
;Initial Layer Speed:30
;Skirt/Brim Speed:25
;Prime Tower Speed:60
;Outer Wall Acceleration:1000
;Inner Wall Acceleration:2000
;Infill Acceleration:2500
;Top/Bottom Acceleration:2500
;Travel Acceleration:2500
;Initial Layer Print Acceleration:500
;Initial Layer Travel Acceleration:500
;Skirt/Brim Acceleration:500
;Combing Mode:noskin
; --------SpecialModel&Mesh Fixes--------
;Union Overlapping Volum:true
;Remove All Holes:false
;Maximum Travel Resolution:0.25
;Maximum Deviation:0.05
;Maximum Model Angle:0.872665
;IS Mold Print:false
;Make Overhang Printable:false
;Enable Coasting:false
;Coasting Volumes:0.064
;Coasting Speed:0.9
;Raft AirGap:0.25
;Layer0 ZOverLap:0.13
;Adaptive Layers:0
;---------------------End of Head--------------------------
M140 S60
M105
M190 S60
M104 S205
M82 ;absolute extrusion mode
M220 S100 ;Reset Feedrate
M221 S100 ;Reset Flowrate

G28 ;Home

G92 E0 ;Reset Extruder
G1 Z2.0 F3000 ;Move Z Axis up
G1 X10.1 Y20 Z0.28 F5000.0 ;Move to start position
M109 S205.000000
G1 X10.1 Y145.0 Z0.28 F1500.0 E15 ;Draw the first line
G1 X10.4 Y145.0 Z0.28 F5000.0 ;Move to side a little
G1 X10.4 Y20 Z0.28 F1500.0 E30 ;Draw the second line
G92 E0  ;Reset Extruder
G1 E-1.0000 F1800 ;Retract a bit
G1 Z2.0 F3000 ;Move Z Axis up
G1 E0.0000 F1800 

G92 E0
G92 E0
G1 F2400 E-0.8
;LAYER_COUNT:240

;LAYER:0
M106 S0
M204 S500
;MESH:0_1
G0 F4800 X90.04 Y101.351 Z0.2
;TYPE:WALL-INNER
G1 F2400 E0
G1 F1800 X89.866 Y101.063 E0.01385
G1 X89.57 Y100.754 E0.03146
G1 X89.305 Y100.638 E0.04337
G1 X88.851 Y100.533 E0.06255
G1 X88.574 Y100.559 E0.074
G1 X88.128 Y100.705 E0.09331
G1 X87.801 Y101.013 E0.1118
G1 X87.543 Y101.049 E0.12253
G1 X87.14 Y100.925 E0.13988
G1 X86.98 Y100.741 E0.14992
G1 X86.849 Y100.407 E0.16468
G1 X86.8 Y99.924 E0.18467
G1 X86.793 Y99.653 E0.19582
G1 X86.814 Y99.27 E0.21161
G1 X86.877 Y98.907 E0.22678
G1 X87.048 Y98.498 E0.24502
G1 X87.342 Y98.346 E0.25864
G1 X87.6 Y98.309 E0.26937
G1 X88.153 Y98.66 E0.29633
G1 X88.758 Y98.862 E0.32258
G1 X89.207 Y98.802 E0.34123
G1 X89.466 Y98.674 E0.35312
G1 X89.835 Y98.322 E0.37411
G1 X89.97 Y98.088 E0.38523
G1 X90.374 Y98.432 E0.40707
G1 X90.945 Y98.504 E0.43076
G1 X91.58 Y98.415 E0.45715
G1 X91.554 Y98.827 E0.47414
G1 X91.561 Y99.418 E0.49847
G1 X91.558 Y101.083 E0.567
G1 X91.568 Y101.697 E0.59227
G1 X91.511 Y102.315 E0.61782
G1 X91.64 Y102.737 E0.63598
G1 X91.794 Y102.966 E0.64734
G1 X92.213 Y103.276 E0.66879
G1 X92.47 Y103.324 E0.67955
G1 X93.054 Y103.306 E0.7036
G1 X93.339 Y103.23 E0.71574
G1 X93.778 Y102.823 E0.74038
G1 X93.935 Y102.455 E0.75685
G1 X93.978 Y101.856 E0.78157
G1 X93.959 Y101.41 E0.79994
G1 X93.964 Y98.467 E0.92107
G1 X94.943 Y98.43 E0.9614
G1 X95.216 Y98.354 E0.97306
G1 X95.668 Y97.973 E0.99739
G1 X95.895 Y98.383 E1.01668
G1 X96.425 Y98.651 E1.04113
G1 X96.325 Y98.766 E1.0474
G1 X96.127 Y99.432 E1.076
G1 X96.251 Y99.929 E1.09708
G1 F1743.6 X96.388 Y100.183 E1.10934
G1 F1640.9 X96.995 Y100.618 E1.14306
G1 F1668.5 X96.678 Y100.685 E1.15745
G1 F1774.9 X96.314 Y100.718 E1.1727
G1 F1800 X95.89 Y100.944 E1.19248
G1 X95.704 Y101.189 E1.20514
G1 X95.511 Y101.579 E1.22305
G1 X95.471 Y101.854 E1.23449
G1 X95.582 Y102.392 E1.2571
G1 X95.672 Y102.635 E1.26776
G1 X96.05 Y103.048 E1.29081
G1 X96.473 Y103.289 E1.31084
G1 X96.876 Y103.414 E1.32821
G1 X97.358 Y103.504 E1.34839
G1 X97.849 Y103.506 E1.3686
G1 X98.438 Y103.442 E1.39299
G1 X98.852 Y103.316 E1.4108
G1 X99.216 Y103.133 E1.42757
G1 X99.547 Y102.898 E1.44428
G1 X99.84 Y102.599 E1.46151
G1 F1792.8 X100.181 Y102.1 E1.48648
G1 F1778.4 X100.393 Y101.455 E1.51477
G1 F1785.6 X100.383 Y102.107 E1.54182
G1 F1800 X100.533 Y102.856 E1.57326
G1 X100.801 Y103.12 E1.58875
G1 X101.334 Y103.402 E1.61357
G1 X102.121 Y103.321 E1.64613
G1 X102.656 Y103.335 E1.66816
G1 X103.041 Y103.33 E1.68401
G1 X103.575 Y103.289 E1.70605
G1 X104.076 Y103.194 E1.72704
G1 X104.547 Y103.037 E1.74747
G1 X104.885 Y102.844 E1.76349
G1 X105.132 Y102.652 E1.77637
G1 X105.245 Y102.928 E1.78864
G1 X105.668 Y103.463 E1.81672
G1 X105.891 Y103.59 E1.82728
G1 X106.478 Y103.822 E1.85326
G1 X107.142 Y103.785 E1.88063
G1 X107.408 Y103.7 E1.89212
G1 X107.826 Y103.466 E1.91184
G1 X108.156 Y103.108 E1.93188
G1 X108.42 Y103.363 E1.94699
G1 X108.999 Y103.535 E1.97185
G1 X109.28 Y103.505 E1.98348
G1 X109.586 Y103.395 E1.99686
G1 X109.83 Y103.224 E2.00913
G1 X110.11 Y102.832 E2.02896
G1 X110.336 Y103.17 E2.04569
G1 X111.038 Y103.557 E2.07868
G1 X111.433 Y103.516 E2.09503
G1 F1668.5 X111.96 Y103.346 E2.11962
G1 F1472.7 X112.278 Y103.076 E2.1406
G1 F1385.7 X112.426 Y102.791 E2.15777
G1 F1337.8 X112.497 Y102.401 E2.17973
G1 F1387.9 X112.456 Y102.082 E2.19689
G1 F1463.1 X112.307 Y101.637 E2.22066
G1 F1405.4 X112.035 Y101.158 E2.2497
G1 F1345.9 X111.644 Y100.405 E2.2964
G1 F1295.1 X112.107 Y99.64 E2.34756
G1 F1271 X112.285 Y100.059 E2.37409
G1 X112.375 Y100.299 E2.38903
G1 F1381.4 X112.883 Y101.502 E2.45907
G1 F1505.1 X112.992 Y101.805 E2.47492
G1 F1463.1 X113.198 Y102.428 E2.50815
G1 F1441.7 X112.972 Y103.063 E2.54278
G1 F1470.3 X112.793 Y103.492 E2.56621
G1 F1520.5 X112.169 Y103.775 E2.59959
G1 F1659.2 X111.805 Y104.049 E2.61993
G1 F1789.2 X111.608 Y104.379 E2.63585
G1 F1800 X111.562 Y105.009 E2.66185
G1 X111.798 Y105.569 E2.68686
G1 X112.248 Y105.936 E2.71076
G1 F1700.4 X112.672 Y106.162 E2.7317
G1 F1563.2 X113.373 Y106.044 E2.76539
G1 F1502.5 X113.907 Y105.87 E2.79308
G1 F1568.7 X114.133 Y105.69 E2.80673
G1 F1726.7 X114.232 Y105.594 E2.81264
G1 F1800 X114.542 Y105.327 E2.82948
G1 X114.807 Y104.905 E2.84999
G1 X114.956 Y104.609 E2.86363
G1 X115.12 Y104.224 E2.88086
G1 X115.508 Y103.23 E2.92478
G1 F1811 X116.087 Y101.604 E2.99539
G1 F1796.4 X116.246 Y101.182 E3.01399
G1 F1515.3 X116.713 Y100.093 E3.07192
G1 F1325.9 X116.854 Y99.666 E3.09705
G1 X117.176 Y99.896 E3.11916
G1 X117.583 Y100.004 E3.14269
G1 X117.305 Y100.394 E3.16945
G1 F1512.7 X116.75 Y101.285 E3.22086
G1 F1771.4 X116.518 Y101.837 E3.2459
G1 F1789.2 X116.46 Y102.304 E3.26539
G1 F1800 X116.542 Y102.734 E3.28341
G1 X116.747 Y103.104 E3.30082
G1 X116.976 Y103.33 E3.31406
G1 X117.513 Y103.57 E3.33827
G1 X118.125 Y103.529 E3.36351
G1 X119.434 Y103.533 E3.41739
G1 X119.071 Y103.845 E3.43709
G1 X118.577 Y104.237 E3.46305
G1 X118.264 Y104.466 E3.47901
G1 X117.777 Y104.797 E3.50325
G1 X117.462 Y104.995 E3.51856
G1 X117.068 Y105.228 E3.5374
G1 X116.748 Y105.404 E3.55243
G1 X116.188 Y105.691 E3.57833
G1 X115.753 Y105.892 E3.59806
G1 X115.206 Y106.119 E3.62243
G1 F1700.4 X114.539 Y106.356 E3.65328
G1 F1525.7 X114.172 Y106.412 E3.6713
G1 F1465.5 X113.99 Y106.475 E3.68104
G1 F1500 X113.532 Y106.609 E3.70461
G1 X113.092 Y106.706 E3.72686
G1 F1467.9 X112.779 Y106.762 E3.74291
G1 F1512.7 X112.624 Y106.817 E3.75097
G1 F1681.1 X111.973 Y106.956 E3.7803
G1 F1800 X111.506 Y107.015 E3.79968
G1 X111.077 Y107.052 E3.8174
G1 X110.695 Y107.075 E3.83315
G1 X110.319 Y107.087 E3.84864
G1 X109.834 Y107.088 E3.8686
G1 X109.55 Y107.08 E3.88029
G1 X85.714 Y105.636 E4.86317
G1 X85.292 Y105.489 E4.88156
G1 X85.047 Y105.223 E4.89644
G1 X84.915 Y104.977 E4.90793
G1 X84.863 Y104.655 E4.92136
G1 X84.863 Y101.983 E5.03134
G1 X85.077 Y102.34 E5.04847
G1 X85.594 Y102.859 E5.07862
G1 X86.219 Y103.243 E5.10881
G1 X86.812 Y103.426 E5.13436
G1 X87.247 Y103.494 E5.15248
G1 X87.662 Y103.506 E5.16957
G1 X88.099 Y103.484 E5.18758
G1 X88.771 Y103.326 E5.21599
G1 X89.36 Y102.998 E5.24374
G1 X89.829 Y102.498 E5.27195
G1 X90.068 Y101.961 E5.29615
G1 X90.099 Y101.705 E5.30676
G1 X90.04 Y101.351 E5.32153
G0 F4800 X90.18 Y101.33
G0 X88.181 Y100.468
G0 X87.683 Y100.834
G0 X87.267 Y100.753
G0 X87.079 Y100.408
G0 X87.004 Y99.623
G0 X87.147 Y98.778
G0 X87.366 Y98.568
G0 X87.616 Y98.566
G0 X89.673 Y98.77
G0 X90.026 Y98.43
G0 X91.341 Y98.673
G0 X91.418 Y102.416
G0 X91.709 Y103.052
G0 X92.413 Y103.447
G0 X93.126 Y103.425
G0 X93.411 Y103.313
G0 X93.891 Y102.882
G0 X94.167 Y100.781
G0 X94.184 Y98.679
G0 X95.606 Y98.316
G0 X96.115 Y98.74
G0 X96.079 Y99.767
G0 X97.551 Y100.783
G0 X97.247 Y100.655
G1 F596.4 X97.683 Y100.65 E5.33959
G1 F811.5 X97.872 Y100.798 E5.34689
G1 F813.7 X97.927 Y101.138 E5.35735
G1 X97.785 Y101.187 E5.36191
G1 F811.5 X97.496 Y100.964 E5.37301
G1 F596.4 X97.247 Y100.655 E5.38945
G0 F4800 X97.551 Y100.783
G0 X96.24 Y100.629
G0 X95.678 Y100.993
G0 X95.39 Y101.549
G0 X95.349 Y101.843
G0 X95.589 Y102.713
G0 X96.058 Y103.192
G0 X96.801 Y103.521
G0 X97.359 Y103.624
G0 X98.522 Y103.541
G0 X99.32 Y103.208
G0 X99.973 Y102.618
G0 X99.944 Y101.984
G0 X100.135 Y101.401
G0 X100.296 Y98.128
G0 X100.301 Y98.001
G1 F668.4 X100.469 Y98.418 E5.41027
G1 F831 X100.404 Y99.212 E5.43995
G1 F778.8 X100.405 Y99.6 E5.45537
G1 F749.1 X100.387 Y100.378 E5.48753
G1 F730 X100.356 Y100.268 E5.49237
G1 F758.2 X100.142 Y99.641 E5.51942
G1 F778.8 X100.023 Y99.418 E5.52947
G1 X99.859 Y99.211 E5.53996
G1 F827.3 X99.969 Y99.08 E5.54636
G1 F942.5 X100.094 Y98.511 E5.5655
G1 F1022.8 X100.102 Y98.386 E5.56929
G1 F706.4 X100.301 Y98.001 E5.58828
G0 F4800 X100.296 Y98.128
G0 X100.466 Y96.462
G0 X101.06 Y95.998
G0 X101.692 Y95.905
G0 X103.702 Y95.976
G0 X104.773 Y96.279
G0 X106.229 Y97.827
G0 X106.554 Y100.146
G0 X108.277 Y100.854
G0 X108.513 Y100.441
G0 X108.084 Y97.733
G0 X114.261 Y97.767
G0 X114.569 Y98.173
G0 X115.706 Y97.349
G0 X115.747 Y97.491
G1 F1800 X115.374 Y97.585 E5.60411
G1 X115.163 Y97.73 E5.61465
G1 X114.806 Y98.191 E5.63865
G1 X114.61 Y98.661 E5.65961
G1 X114.528 Y98.906 E5.67024
G1 X114.359 Y98.261 E5.69769
G1 X114.244 Y98.021 E5.70864
G1 X113.717 Y97.593 E5.73658
G1 X113.069 Y97.447 E5.76392
G1 X112.434 Y97.679 E5.79175
G1 X112.154 Y97.997 E5.80919
G1 X111.995 Y97.792 E5.81987
G1 X111.543 Y97.526 E5.84145
G1 X111.129 Y97.483 E5.85859
G1 X110.72 Y97.582 E5.87591
G1 X110.423 Y97.79 E5.89083
G1 X110.179 Y98.072 E5.90618
G1 X109.89 Y97.687 E5.92599
G1 X109.258 Y97.454 E5.95372
G1 X108.755 Y97.536 E5.97469
G1 X108.479 Y97.666 E5.98725
G1 X108.119 Y98.009 E6.00772
G1 X107.974 Y98.343 E6.0227
G1 X107.948 Y98.839 E6.04315
G1 X108.102 Y99.306 E6.06339
G1 X108.453 Y99.908 E6.09207
G1 X108.762 Y100.465 E6.11829
G1 X108.312 Y101.242 E6.15524
G1 X108.009 Y100.87 E6.17499
G1 X107.578 Y100.541 E6.19731
G1 X107.096 Y100.378 E6.21825
G1 X106.576 Y100.366 E6.23966
G1 X106.3 Y100.431 E6.25133
G1 X106.335 Y100.11 E6.26462
G1 X106.351 Y99.727 E6.2804
G1 X106.332 Y99.182 E6.30284
G1 X106.282 Y98.77 E6.31993
G1 X106.229 Y98.497 E6.33137
G1 X106.145 Y98.191 E6.34443
G1 X105.985 Y97.776 E6.36274
G1 X105.685 Y97.228 E6.38845
G1 X105.244 Y96.752 E6.41516
G1 X104.795 Y96.414 E6.43829
G1 X104.185 Y96.192 E6.46501
G1 X103.761 Y96.107 E6.48281
G1 X103.401 Y96.064 E6.49773
G1 X103 Y96.041 E6.51427
G1 X102.331 Y96.041 E6.5418
G1 X101.638 Y96.026 E6.57033
G1 X101.138 Y96.107 E6.59118
G1 X100.89 Y96.206 E6.60217
G1 F1778.4 X100.499 Y96.596 E6.62518
G1 F1693.9 X100.351 Y97.129 E6.64937
G1 F1412 X100.262 Y97.412 E6.66494
G1 F1470.3 X99.982 Y96.959 E6.69177
G1 F1800 X99.772 Y96.639 E6.70752
G1 X99.379 Y96.282 E6.72938
G1 X99.009 Y96.08 E6.74673
G1 X98.631 Y95.946 E6.76323
G1 X98.157 Y95.875 E6.78296
G1 X97.731 Y95.86 E6.80051
G1 X97.377 Y95.879 E6.8151
G1 X97.029 Y95.933 E6.82959
G1 X96.662 Y96.033 E6.84525
G1 X96.252 Y96.218 E6.86376
G1 X95.751 Y96.584 E6.8893
G1 X95.452 Y96.265 E6.9073
G1 X95.156 Y96.1 E6.92124
G1 X94.826 Y96.028 E6.93515
G1 X94.34 Y96.04 E6.95516
G1 X92.073 Y96.035 E7.04846
G1 X91.501 Y96.045 E7.07201
G1 X90.646 Y95.975 E7.10732
G1 X90.018 Y96.302 E7.13646
G1 X89.778 Y96.753 E7.15749
G1 X89.325 Y96.365 E7.18204
G1 X88.865 Y96.099 E7.20391
G1 X88.327 Y95.928 E7.22715
G1 X87.905 Y95.874 E7.24466
G1 X87.298 Y95.864 E7.26964
G1 X86.726 Y95.966 E7.29356
G1 X86.141 Y96.163 E7.31897
G1 X85.439 Y96.637 E7.35383
G1 X85.034 Y97.113 E7.37955
G1 X84.863 Y97.399 E7.39327
G1 X84.863 Y94.725 E7.50333
G1 X84.956 Y94.31 E7.52083
G1 X85.228 Y94.021 E7.53717
G1 X85.468 Y93.88 E7.54863
G1 X85.72 Y93.804 E7.55946
G1 X109.305 Y92.372 E8.53199
G1 X109.826 Y92.353 E8.55345
G1 X110.282 Y92.353 E8.57222
G1 X111.049 Y92.386 E8.60382
G1 X111.624 Y92.437 E8.62758
G1 X112.026 Y92.49 E8.64427
G1 X112.637 Y92.587 E8.66973
G1 X113.217 Y92.709 E8.69412
G1 X113.703 Y92.83 E8.71474
G1 X114.221 Y92.978 E8.73691
G1 X114.749 Y93.153 E8.75981
G1 X115.171 Y93.306 E8.77828
G1 X115.737 Y93.54 E8.80349
G1 X116.215 Y93.762 E8.82518
G1 X116.727 Y94.023 E8.84884
G1 X117.172 Y94.272 E8.86983
G1 X117.843 Y94.687 E8.9023
G1 X118.287 Y94.992 E8.92447
G1 X118.728 Y95.32 E8.94709
G1 X119.15 Y95.66 E8.9694
G1 X119.517 Y95.975 E8.9893
G1 X119.962 Y96.395 E9.01449
G1 X120.34 Y96.782 E9.03676
G1 X120.622 Y97.089 E9.05391
G1 F1962.6 X120.985 Y97.452 E9.07329
G1 F2173.2 X121.227 Y97.73 E9.08586
G1 F1993.3 X121.447 Y98.104 E9.10199
G1 F1811 X121.968 Y98.857 E9.13945
G1 F1800 X122.333 Y99.469 E9.16877
